static/img/menus/ico-air-filter-reset.svg

<svg width="16" height="16" viewBox="0 0 16 16" fill="none" xmlns="http://www.w3.org/2000/svg">
<path d="M11.774 5.53333L13.6407 3.46667C13.974 3.2 13.7073 2.66667 13.3073 2.66667H3.17401C2.77401 2.66667 2.50735 3.2 2.77401 3.53333L6.64068 8.2C6.70734 8.26667 6.77401 8.4 6.77401 8.53333V13C6.77401 13.4 7.24067 13.6667 7.57401 13.4L8.84067 12.4667" stroke="currentColor" stroke-linecap="round" stroke-linejoin="round"/>
<path d="M11.1075 12.2665C12.6908 12.2665 13.9742 10.9831 13.9742 9.39987C13.9742 7.81667 12.6908 6.5332 11.1075 6.5332C9.52434 6.5332 8.24088 7.81667 8.24088 9.39987C8.24088 10.9831 9.52434 12.2665 11.1075 12.2665Z" stroke="currentColor" stroke-miterlimit="3" stroke-linecap="round" stroke-linejoin="round"/>
<path d="M12.0411 8.46647L10.1745 10.3331" stroke="currentColor" stroke-miterlimit="3" stroke-linecap="round" stroke-linejoin="round"/>
<path d="M12.0411 10.3331L10.1745 8.46647" stroke="currentColor" stroke-miterlimit="3" stroke-linecap="round" stroke-linejoin="round"/>
</svg>

<svg xmlns="http://www.w3.org/2000/svg" width="16" height="16" fill="none" viewBox="0 0 16 16"><path stroke="currentColor" stroke-linecap="round" stroke-linejoin="round" d="m11.774 5.533 1.867-2.066c.333-.267.066-.8-.334-.8H3.174c-.4 0-.667.533-.4.866L6.641 8.2a.5.5 0 0 1 .133.333V13c0 .4.467.667.8.4l1.267-.933"/><path stroke="currentColor" stroke-linecap="round" stroke-linejoin="round" stroke-miterlimit="3" d="M11.108 12.267a2.867 2.867 0 1 0 0-5.734 2.867 2.867 0 0 0 0 5.734M12.041 8.466l-1.867 1.867M12.041 10.333l-1.867-1.867"/></svg>
